!!!!SEGMENT: Ror0109-Tu_piangi_e_quella_per_chi_fai_tal_pianto
!!!id: Ror0109
!!!AGN: Madrigal
!!!voices: 5
!!!COM: Cipriano de Rore
!!!OTL: Tu piangi, e quella per chi fai tal pianto
**kern	**text	**kern	**text	**kern	**text	**kern	**text	**kern	**text
*part5	*part5	*part4	*part4	*part3	*part3	*part2	*part2	*part1	*part1
*staff5	*staff5	*staff4	*staff4	*staff3	*staff3	*staff2	*staff2	*staff1	*staff1
*I"Bassus	*	*I"Tenor II	*	*I"Tenor I	*	*I"Altus	*	*I"Superius	*
*I'B	*	*I'T. II	*	*I'T. I	*	*I'A	*	*I'S	*
*clefF4	*	*clefF4	*	*clefGv2	*	*clefGv2	*	*clefG2	*
*k[]	*	*k[]	*	*k[]	*	*k[]	*	*k[]	*
*M2/1	*	*M2/1	*	*M2/1	*	*M2/1	*	*M2/1	*
*met(C)	*	*met(C)	*	*met(C)	*	*met(C)	*	*met(C)	*
!!section: Tu piangi
!!!OMD: Tu piangi
=1	=1	=1	=1	=1	=1	=1	=1	=1	=1
2r	.	2r	.	0r	.	1A	Tu	1r	.
1.AA	Tu	1E	Tu	.	.	.	.	.	.
.	.	.	.	.	.	1c	pian-	2r	.
.	.	[2A	pian-	.	.	.	.	[2e	Tu
=2	=2	=2	=2	=2	=2	=2	=2	=2	=2
1E	pian-	2A]	.	1r	.	1B	-gi,	1e]	.
.	.	2G#X	-gi,	.	.	.	.	.	.
2D	-gi,	4r	.	1A	Tu	4r	.	1f	pian-
.	.	4A	e	.	.	4d	e	.	.
4r	.	4F	quel-	.	.	2d	quel-	.	.
4D	e	4D	-la	.	.	.	.	.	.
=3	=3	=3	=3	=3	=3	=3	=3	=3	=3
4C	quel-	2.E	per	1c	pian-	4G	-la	2e	-gi,
4AA	-la	.	.	.	.	4A	per	.	.
2C	per	.	.	.	.	4A	chi	4r	.
.	.	4E	chi	.	.	2G	fai	4e	e
4GG	chi	4G	fai	1B	-gi,	.	.	4d	quel-
2GG	fai	4D	tal	.	.	4G	tal	4B	-la
.	.	4.D	pian-	.	.	2G	pian-	[2d	per
4GG	tal	.	.	.	.	.	.	.	.
.	.	8E	.	.	.	.	.	.	.
=4	=4	=4	=4	=4	=4	=4	=4	=4	=4
2D	pian-	2F	.	2r	.	4A	-to	4d]	.
.	.	.	.	.	.	2A	Ne	4d	chi
4AA	-to	4E	-to	2A	e	.	.	4c	fai
4AA	Ne	2E	Ne	.	.	4.c	ri-	4A	tal
2C	ri-	.	.	4G	quel-	.	.	2e	pian-
.	.	.	.	.	.	8G	.	.	.
.	.	4.G	ri-	4E	-la	4c	.	.	.
2GG	-de	.	.	2G	per	2B	-de,	4d	-to
.	.	8FL	.	.	.	.	.	.	.
.	.	8D	.	.	.	.	.	4d	Ne
.	.	8EJ	.	.	.	.	.	.	.
=5	=5	=5	=5	=5	=5	=5	=5	=5	=5
1r	.	8FL	.	4D	chi	4r	.	4.a	ri-
.	.	8E	.	.	.	.	.	.	.
.	.	8F	.	2D	fai	4d	e	.	.
.	.	8GJ	.	.	.	.	.	8g	.
.	.	2A	.	.	.	4d	quel-	8fL	.
.	.	.	.	.	.	.	.	8eJ	.
.	.	.	.	4D	tal	4d	-la	4.f	.
2r	.	2AA	-de	4.A	pian-	4c	per	.	.
.	.	.	.	.	.	.	.	8e	.
.	.	.	.	.	.	4c	chi	2e	.
.	.	.	.	8G	.	.	.	.	.
2D	e	2r	.	2F	.	4A	fai	.	.
.	.	.	.	.	.	4B	tal	4d	.
=6	=6	=6	=6	=6	=6	=6	=6	=6	=6
4C	quel-	2A	e	2.E	-to	1c	pian-	1.e	-de,
4AA	-la	.	.	.	.	.	.	.	.
2.C	per	2G	quel-	.	.	.	.	.	.
.	.	.	.	4E	Ne	.	.	.	.
.	.	2E	-la	4.c	ri-	2G	-to	.	.
4C	chi	.	.	.	.	.	.	.	.
.	.	.	.	8B	.	.	.	.	.
4D	fai	4F	per	8AL	.	4d	Ne	2r	.
.	.	.	.	8GJ	.	.	.	.	.
4AA	tal	4F	chi	[4A	.	[4c	ri-	.	.
=7	=7	=7	=7	=7	=7	=7	=7	=7	=7
4.C	pian-	4E	fai	8AL]	.	8cL]	.	1r	.
.	.	.	.	8GJ	.	8dJ	.	.	.
.	.	4E	tal	2G	.	2e	.	.	.
8BB	.	.	.	.	.	.	.	.	.
2AA	.	2A	pian-	.	.	.	.	.	.
.	.	.	.	4F#i	.	8dL	.	.	.
.	.	.	.	.	.	8cJ	.	.	.
4GG	-to	4D	-to	2G	-de,	2B	-de,	4r	.
4GG	Ne	4D	Ne	.	.	.	.	2g	e
2C	ri-	[2E	ri-	4r	.	4r	.	.	.
.	.	.	.	4G	e	4c	e	4e	ri-
=8	=8	=8	=8	=8	=8	=8	=8	=8	=8
2AA	-de,	2E]	.	2.c	ri-	4c	ri-	4e	-de’l
.	.	.	.	.	.	4A	-de’l	2a	ciel
2r	.	2E	-de,	.	.	2e	ciel	.	.
.	.	.	.	4B	-de’l	.	.	4g	che
2AA	e	2r	.	4A	ciel	2c#X	che	4e	l’ha
.	.	.	.	4A	che	.	.	4e	rac-
4GG	ri-	4r	.	4B	l’ha	4d	l’ha	2g	-col-
4GG	-de’l	[4G	e	4B	rac-	4d	rac-	.	.
=9	=9	=9	=9	=9	=9	=9	=9	=9	=9
2.C	ciel	4G]	.	2c	-col-	4.e	-col-	2g	-ta
.	.	4E	ri-	.	.	.	.	.	.
.	.	.	.	.	.	8d	.	.	.
.	.	4E	-de’l	2A	-ta	2c	.	4r	.
4AA	che	2A	ciel	.	.	.	.	4e	Fra
4E	l’ha	.	.	2r	.	4B	-ta	4e	l’al-
4E	rac-	4G	che	.	.	4B	Fra	4e	-me e-
2D	-col-	4F	l’ha	2A	Fra	4d	l’al-	2f	-let-
.	.	4D	rac-	.	.	4d	-me e-	.	.
=10	=10	=10	=10	=10	=10	=10	=10	=10	=10
1AA	-ta	2E	-col-	4A	l’al-	2c	-let-	4e	-te,
.	.	.	.	4A	-me e-	.	.	4.e	li-
.	.	4E	-ta	2c	-let-	2A	-te,	.	.
.	.	.	.	.	.	.	.	8e	-be-
.	.	4E	Fra	.	.	.	.	4e	-ra e
1r	.	4G	l’al-	4B	-te,	4r	.	4d	di-
.	.	4G	-me e-	2B	li-	4d	Fra	4.g	-sciol-
.	.	2D	-let-	.	.	4d	l’al-	.	.
.	.	.	.	.	.	.	.	8f#i	.
.	.	.	.	4A	-be-	4d	-me e-	4f#i	.
=11	=11	=11	=11	=11	=11	=11	=11	=11	=11
4r	.	4C	-te,	4c	-ra e	2e	-let-	2g	-ta,
2C	Fra	4.E	li-	4c	di-	.	.	.	.
.	.	.	.	2G	-sciol-	4e	-te,	4r	.
.	.	8E	-be-	.	.	.	.	.	.
2GG	l’al-	4D	-ra e	.	.	4B	Fra	4g	Fra
.	.	4.G	di-	2G	-ta,	4B	l’al-	4g	l’al-
4GG	-me e-	.	.	.	.	4B	-me e-	4d	-me e-
.	.	16F#XLL	.	.	.	.	.	.	.
.	.	16EJJ	.	.	.	.	.	.	.
2AA	-let-	2F#i	-sciol-	2r	.	2c	-let-	2a	-let-
=12	=12	=12	=12	=12	=12	=12	=12	=12	=12
2GG	-te,	4G	-ta,	2r	.	4B	-te,	2d	-te,
.	.	4D	Fra	.	.	4.B	li-	.	.
4.EE	li-	2.E	l’al-	2G	Fra	.	.	2r	.
.	.	.	.	.	.	8B	-be-	.	.
.	.	.	.	.	.	4B	-ra e	.	.
8EE	-be-	.	.	.	.	.	.	.	.
4AA	-ra e	.	.	4c	l’al-	4A	di-	2r	.
4GG	di-	4G	-me e-	4B-X	-me e-	2d	-sciol-	.	.
2AA	-sciol-	4F	-let-	2A	-let-	.	.	4.a	li-
.	.	4E	-te,	.	.	4c#X	-ta,	.	.
.	.	.	.	.	.	.	.	8a	-be-
=13	=13	=13	=13	=13	=13	=13	=13	=13	=13
4GG	-ta,	2G	li-	4D	-te,	4r	.	4b-X	-ra e
2C	li-	.	.	4.E	li-	4.e	li-	4g	di-
.	.	4E	-be-	.	.	.	.	2.a	-sciol-
.	.	.	.	8E	-be-	8e	-be-	.	.
4AA	-be-	2A	-ra e	4E	-ra e	4c	-ra e	.	.
4D	-ra e	.	.	4F#X	di-	4A	di-	.	.
4GG	di-	4B-X	di-	4.G	-sciol-	4.d	-sciol-	4g	-ta
2D	-sciol-	2A	-sciol-	.	.	.	.	4r	.
.	.	.	.	8F#i	.	8c	.	.	.
.	.	.	.	4F#i	.	4A	.	4d	Dal
=14	=14	=14	=14	=14	=14	=14	=14	=14	=14
4GG	-ta	1.G	-ta	4G	-ta	1B	-ta	2d	fral
4GG	Dal	.	.	4D	Dal	.	.	.	.
4GG	fral	.	.	4D	fral	.	.	2d	ca-
4GG	ca-	.	.	4D	ca-	.	.	.	.
2.C	-du-	.	.	8CL	-du-	1r	.	2.e	-du-
.	.	.	.	8D	.	.	.	.	.
.	.	.	.	8E	.	.	.	.	.
.	.	.	.	8FJ	.	.	.	.	.
.	.	4r	.	4.G	.	.	.	.	.
4BB	-co e	4G	Dal	.	.	.	.	4d	-co e
.	.	.	.	8F	.	.	.	.	.
=15	=15	=15	=15	=15	=15	=15	=15	=15	=15
4C	cor-	2G	fral	4E	.	0r	.	4c	cor-
4GG	-rup-	.	.	4D	-co e	.	.	4B	-rup-
4BB-X	-ti-	2G	ca-	2D	cor-	.	.	4d	-ti-
4BB-i	-bil	.	.	.	.	.	.	4d	-bil
8AAL	man-	2.A	-du-	4F	-rup-	.	.	[1c	man-
8GG	.	.	.	.	.	.	.	.	.
8AA	.	.	.	2E	-ti-	.	.	.	.
8BBnXiJ	.	.	.	.	.	.	.	.	.
4.C	.	.	.	.	.	.	.	.	.
.	.	4G	-co e	4E	-bil	.	.	.	.
8BB	.	.	.	.	.	.	.	.	.
=16	=16	=16	=16	=16	=16	=16	=16	=16	=16
2AA	.	4F	cor-	2A	man-	2r	.	2c]	.
.	.	4E	-rup-	.	.	.	.	.	.
4GG	-to,	4G	-ti-	4D	-to,	4r	.	1B	-to,
4GG	Dal	4G	-bil	4G	Dal	4d	Dal	.	.
4GG	fral	4.D	man-	4G	fral	2d	fral	.	.
4GG	ca-	.	.	4G	ca-	.	.	.	.
.	.	8E	.	.	.	.	.	.	.
2D	-du-	2F	.	[2A	-du-	2d	ca-	2r	.
=17	=17	=17	=17	=17	=17	=17	=17	=17	=17
4C	-co e	2E	-to,	4A]	.	2.e	-du-	2r	.
2C	cor-	.	.	4G	-co e	.	.	.	.
.	.	4r	.	4A	cor-	.	.	4r	.
4BB	-rup-	4G	Dal	4D	-rup-	4d	-co_e	4g	Dal
4C	-ti-	4G	fral	4E	-ti-	4c	cor-	4g	fral
4E	-bil	4G	ca-	4E	-bil	4B	-rup-	4g	ca-
2D	man-	[2A	-du-	2F	man-	4d	-ti-	4f	-du-
.	.	.	.	.	.	4d	-bil	4d	-co e
=18	=18	=18	=18	=18	=18	=18	=18	=18	=18
4AA	-to,	4A]	.	2E	-to,	2c	man-	4e	cor-
4C	e	4G	-co e	.	.	.	.	4e	-rup-
2D	cor-	2F	cor-	4r	.	4A	-to,	4.f	-ti-
.	.	.	.	4A	e	4d	e	.	.
.	.	.	.	.	.	.	.	8g	.
4AA	-rup-	2E	-rup-	4c	cor-	2e	cor-	4a	.
2C	-ti-	.	.	4c	-rup-	.	.	4g	-bil
.	.	4G	-ti-	4c	-ti-	4e	-rup-	2g	man-
4GG	-bil	4G	-bil	4B-X	-bil	[4d	-ti-	.	.
=19	=19	=19	=19	=19	=19	=19	=19	=19	=19
1D	man-	1F	man-	1A	man-	4d]	.	[0al	-to.
.	.	.	.	.	.	4d	-bil	.	.
.	.	.	.	.	.	2d	man-	.	.
[1AAl	-to.	[1El	-to.	[1Al	-to.	[1c#Xl	-to.	.	.
=20	=20	=20	=20	=20	=20	=20	=20	=20	=20
0AA]	.	0E]	.	0A]	.	0c#]	.	0a]	.
=21||	=21||	=21||	=21||	=21||	=21||	=21||	=21||	=21||	=21||
*M2/1	*	*M2/1	*	*M2/1	*	*M2/1	*	*M2/1	*
*met(C)	*	*met(C)	*	*met(C)	*	*met(C)	*	*met(C)	*
!!section: Lei, tutta
!!!OMD: Lei, tutta
2D	Lei,	2r	.	2F#X	Lei,	2A	Lei,	0r	.
4GG	tut-	2D	Lei,	2.G	tut-	4B	tut-	.	.
4GG	-ta in-	.	.	.	.	4B	-ta in-	.	.
2C	-ten-	2E	tut-	.	.	2.c	-ten-	.	.
.	.	.	.	4G	-ta in-	.	.	.	.
4AA	-ta al	4E	-ta in-	[2A	-ten-	.	.	.	.
[4D	lu-	[4F	-ten-	.	.	4A	-ta al	.	.
=22	=22	=22	=22	=22	=22	=22	=22	=22	=22
4D]	.	4F]	.	4A]	.	4d	lu-	0r	.
4C	-me	4E	-ta al	4A	-ta al	4e	-me	.	.
4D	di-	4F	lu-	4A	lu-	4d	di-	.	.
4AA	-vo e	4E	-me	4A	-me	4c#X	-vo e	.	.
2BB-X	san-	4D	di-	4G	di-	2d	san-	.	.
.	.	4D	-vo e	4G	-vo e	.	.	.	.
4AA	-to,	2E	san-	2A	san-	[2c#i	-to,	.	.
4AA	Lei,	.	.	.	.	.	.	.	.
=23	=23	=23	=23	=23	=23	=23	=23	=23	=23
4AA	tut-	4E	-to,	4A	-to,	2c#]	.	2a	Lei,
4AA	-ta in-	4E	Lei,	4A	Lei	.	.	.	.
2GG	-ten-	2G	tut-	2.B	tut-	2r	.	4d	tut-
.	.	.	.	.	.	.	.	4d	-ta in-
4GG	-ta al	4D	-ta in-	.	.	2r	.	2g	-ten-
2C	lu-	2E	-ten-	4c	-ta in-	.	.	.	.
.	.	.	.	4G	-ten-	[2e	Dolc’	4e	-to al
4AA	-me	4E	-ta al	4c	-ta al	.	.	[4a	lu-
=24	=24	=24	=24	=24	=24	=24	=24	=24	=24
2E	di-	2.E	lu-	2B	lu-	2e]	.	4a]	.
.	.	.	.	.	.	.	.	4g	-me
2AA	-vo e	.	.	4A	-me	4c#X	har-	4a	di-
.	.	4A	-me	4.A	di-	4c#i	-mo-	4e	-vo e
2D	san-	4F	di-	.	.	2d	-nia	2f	san-
.	.	.	.	8GL	.	.	.	.	.
.	.	4D	-vo e	8A	.	.	.	.	.
.	.	.	.	8BJ	.	.	.	.	.
2C	-to,	[2E	san-	4c	.	4G	per	2e	-to,
.	.	.	.	4G	-vo e	[4cnXi	o-	.	.
=25	=25	=25	=25	=25	=25	=25	=25	=25	=25
2AA	Dolc’	2E]	.	1c	san-	4c]	.	1a	Dolc’
.	.	.	.	.	.	4A	-gni	.	.
4AA	har-	2E	-to,	.	.	4e	par-	.	.
4AA	-mo-	.	.	.	.	4e	-te a-	.	.
2D	-nia	1r	.	2A	-to,	2d	-scol-	4f#X	har-
.	.	.	.	.	.	.	.	4f#i	-mo-
4BB	per	.	.	2r	.	4d	-ta,	2g	-nia
4C	o-	.	.	.	.	[4e	Dolc’	.	.
=26	=26	=26	=26	=26	=26	=26	=26	=26	=26
4AA	-gni	1A	Dolc’	1r	.	4e]	.	4c	per
2D	par-	.	.	.	.	4d	har-	2f	o-
.	.	.	.	.	.	4d	-mo-	.	.
4C#X	-te a-	.	.	.	.	4e	-nia	4e	-gni
2D	-scol-	4F#X	ar-	1d	Dolc’	4r	.	4a	par-
.	.	4F#i	-mo-	.	.	4A	per	4a	-te a-
2GG	-ta,	2G	-nia	.	.	4.B	o-	[2g	-scol-
.	.	.	.	.	.	8c	.	.	.
=27	=27	=27	=27	=27	=27	=27	=27	=27	=27
2r	.	4G	per	4B	ar-	4d	.	2g]	.
.	.	2G	o-	4B	-mo-	4d	-gni	.	.
2C	Dolc’	.	.	4c	-nia	2.e	par-	2g	-ta,
.	.	2E	-gni	2c	per	.	.	.	.
4AA	har-	.	.	.	.	.	.	1r	.
4AA	-mo-	2F	par-	4A	o-	4c	-te a-	.	.
2BB-X	-nia	.	.	4F	-gni	[2d	-scol-	.	.
.	.	4F	-te a-	[4B-i	par-	.	.	.	.
=28	=28	=28	=28	=28	=28	=28	=28	=28	=28
4GG	per	2G	-scol-	4B-]	.	4d]	.	1r	.
2C	o-	.	.	2G	-te a-	4c	-ta,	.	.
.	.	2E	-ta,	.	.	4r	.	.	.
4AA	-gni	.	.	4.A	-scol-	4c	per	.	.
4E	par-	1r	.	.	.	4c	o-	2r	.
.	.	.	.	8G	.	.	.	.	.
4E	-te a-	.	.	4.G	.	4B	-gni	.	.
2D	-scol-	.	.	.	.	4B	par-	2d	Poi
.	.	.	.	8F#i	.	.	.	.	.
.	.	.	.	4F#i	.	4A	-te a-	.	.
=29	=29	=29	=29	=29	=29	=29	=29	=29	=29
1C	-ta,	4r	.	4G	-ta,	2c	-scol-	4e	vol-
.	.	2E	Poi	2G	Poi	.	.	2g	-gen-
.	.	.	.	.	.	2c	-ta,	.	.
.	.	4E	vol-	4G	vol-	.	.	4g	-do-
1r	.	2A	-gen-	2c	-gen-	2r	.	4f	-si a
.	.	.	.	.	.	.	.	2e	se
.	.	4G	-do-	4B	-do-	4r	.	.	.
.	.	4F	-si a	4A	-si a	[4A	Poi	4d	si
=30	=30	=30	=30	=30	=30	=30	=30	=30	=30
2r	.	2.E	se	4c	se	4A]	.	2e	di-
.	.	.	.	4B	si	4G	vol-	.	.
2AA	Poi	.	.	2A	di-	2c	-gen-	2e	-ce,
.	.	4E	si	.	.	.	.	.	.
4BB	vol-	4.D	di-	4G	-ce,	4B	-do-	1r	.
2D	-gen-	.	.	4F	Poi	4A	-si a	.	.
.	.	8E	.	.	.	.	.	.	.
.	.	2F	.	2A	vol-	4d	se	.	.
4D	-do-	.	.	.	.	4d	si	.	.
=31	=31	=31	=31	=31	=31	=31	=31	=31	=31
4C	-si a	2E	-ce:	2c	-gen-	2G	di-	2e	Poi
2C	se	.	.	.	.	.	.	.	.
.	.	2r	.	4c	-do-	4G	-ce,	4e	vol-
4GG	si	.	.	4B	-si a	2d	si	2g	-gen-
2D	di-	1r	.	4A	se	.	.	.	.
.	.	.	.	4d	si	4.A	di-	2f	-do-
[2AA	-ce:	.	.	[2c	di-	.	.	.	.
.	.	.	.	.	.	8BL	.	.	.
.	.	.	.	.	.	8c	.	[4e	-si a
.	.	.	.	.	.	8dJ	.	.	.
=32	=32	=32	=32	=32	=32	=32	=32	=32	=32
2AA]	.	1E	O	2c]	.	1e	.	4e]	.
.	.	.	.	.	.	.	.	2a	se
2r	.	.	.	2B	-ce:	.	.	.	.
.	.	.	.	.	.	.	.	4g#i	si
1AA	O	1F	stol-	4r	.	4.c	-ce:	2a	di-
.	.	.	.	4A	O	.	.	.	.
.	.	.	.	.	.	8B	.	.	.
.	.	.	.	2c	stol-	2A	.	2a	-ce:
=33	=33	=33	=33	=33	=33	=33	=33	=33	=33
2BB-X	stol-	4D	-ta,	4F	-ta,	2r	.	1r	.
.	.	2D	per-	4F	per-	.	.	.	.
4GG	-ta,	.	.	4B-i	-che	2d	O	.	.
4GG	per-	4G	-che	4B-i	se’ in	.	.	.	.
4C	-che	4G	se’ in	2G	ter-	2e	stol-	2r	.
4C	se’ in	2E	ter-	.	.	.	.	.	.
2AA	ter-	.	.	4A	-ra	[2c	-ta,	2e	O
.	.	[4C	-ra	4A	di-	.	.	.	.
=34	=34	=34	=34	=34	=34	=34	=34	=34	=34
4FF	-ra	4C]	.	4A	-mo-	4c]	.	1f	stol-
2FF	di-	2AA	di-	2F	-ra-	4c	Per-	.	.
.	.	.	.	.	.	4c	-che	.	.
4FF	-mo-	4AA	-mo-	4C	-ta	4c	se’ in	.	.
2GG	-ra-	4D	-ra-	2G	tan-	2B	ter-	4d	-ta,
.	.	4BB	-ta	.	.	.	.	4d	Per-
2EE	-ta	[2E	tan-	2G	-to?	4B	-ra	4e	-che
.	.	.	.	.	.	4B	di-	4e	se’ in
=35	=35	=35	=35	=35	=35	=35	=35	=35	=35
1AA	tan-	2E]	.	4r	.	4A	-mo-	2.c	ter-
.	.	.	.	4E	O	2A	-ra-	.	.
.	.	4E	-to?	2A	stol-	.	.	.	.
.	.	4E	O	.	.	4c	-ta	4A	-ra
1GG	-to?	2G	stol-	4D	-ta,	1B	tan-	2d	di-
.	.	.	.	4D	per-	.	.	.	.
.	.	4D	-ta,	4G	-che	.	.	2d	-mo-
.	.	4D	per-	4G	se’ in	.	.	.	.
=36	=36	=36	=36	=36	=36	=36	=36	=36	=36
1r	.	2.G	-che	2E	ter-	4B	-to?	2.e	-ra-
.	.	.	.	.	.	4B	O	.	.
.	.	.	.	4C	-ra	2c	stol-	.	.
.	.	4E	se’_in	4c	di-	.	.	4g	-ta
1r	.	2F	ter-	4c	-mo-	4A	-ta,	1f	tan-
.	.	.	.	2A	-ra-	4c	Per-	.	.
.	.	2D	-ra	.	.	4d	-che	.	.
.	.	.	.	4A	-ta	4d	se’ in	.	.
=37	=37	=37	=37	=37	=37	=37	=37	=37	=37
2r	.	2.E	di-	1G	tan-	2B	ter-	1e	-to?
2C	E	.	.	.	.	4c	-ra	.	.
.	.	4E	-mo-	.	.	2c	di-	.	.
4C	quan-	4G	-ra-	2E	-to?	.	.	4r	.
4C	-do	4G	-ta	.	.	4c	-mo-	4e	E
4AA	gli oc-	4.A	tan-	2r	.	4c	-ra-	4e	quan-
4AA	-chi	.	.	.	.	4c	-ta	4e	-do
.	.	8G	.	.	.	.	.	.	.
=38	=38	=38	=38	=38	=38	=38	=38	=38	=38
2D	suoi	4F	.	4r	.	4.A	tan-	4d	gli oc-
.	.	4D	.	4A	E	.	.	4f	-chi
.	.	.	.	.	.	8B	.	.	.
2AA	qua	2E	-to?	4A	quan-	2c	-to?	2.e	suoi
.	.	.	.	4A	-do	.	.	.	.
4C	giù	2r	.	4G	gli oc-	1r	.	.	.
4GG	de-	.	.	4B-X	-chi	.	.	4d	qua
2AA	-cli-	2E	E	[2A	suoi	.	.	4c	giù
.	.	.	.	.	.	.	.	4c	de-
=39	=39	=39	=39	=39	=39	=39	=39	=39	=39
2EE	-na,	4E	quan-	4A]	.	2r	.	4.B	-cli-
.	.	4E	-do	4G	qua	.	.	.	.
.	.	.	.	.	.	.	.	8c	.
2r	.	4D	gli oc-	4F	giù	2A	E	2d	.
.	.	4F	-chi	4D	de-	.	.	.	.
2AA	qua	2.E	suoi	8EL	-cli-	4A	quan-	2c	-na,
.	.	.	.	8D	.	.	.	.	.
.	.	.	.	8C	.	4A	-do	.	.
.	.	.	.	8DJ	.	.	.	.	.
4C	giù	.	.	8EL	.	4G	gli oc-	2r	.
.	.	.	.	8FJ	.	.	.	.	.
4GG	de-	4D	qua	4G	.	4B-X	-chi	.	.
=40	=40	=40	=40	=40	=40	=40	=40	=40	=40
2AA	-cli-	4C	giù	2E	-na,	2.A	suoi	2e	Ve-
.	.	4C	de-	.	.	.	.	.	.
2EE	-na,	2BB	-cli-	2r	.	.	.	4e	-den-
.	.	.	.	.	.	4G	qua	4B	-do
4r	.	2AA	-na,	4r	.	4F	giù	4c	la
4AA	Ve-	.	.	4e	Ve-	4E	de-	4c	pre-
4D	-den-	2r	.	4d	-den-	2F	-cli-	4A	-gion
4D	-do	.	.	4A	-do	.	.	[4a	don-
=41	=41	=41	=41	=41	=41	=41	=41	=41	=41
4GG	la	2r	.	4B-X	la	4D	-na,	4a]	.
4GG	pre-	.	.	4B-i	pre-	4d	Ve-	2g	-d’è
2D	-gion	4r	.	2A	-gion	4d	-den-	.	.
.	.	4D	Ve-	.	.	4A	-do	4f#i	par-
2GG	don-	4D	-den-	2G	don-	4B-X	la	2g	-ti-
.	.	4D	-do	.	.	4B-i	pre-	.	.
4C	-d’è	4E	la	4G	-d’è	4G	-gion	2g	-ta,
4BB	par-	4D	pre-	4G	par-	[4d	don-	.	.
=42	=42	=42	=42	=42	=42	=42	=42	=42	=42
2C	-ti-	2G	-gion,	4.E	-ti-	4d]	.	4r	.
.	.	.	.	.	.	2c	-d’è	4g	Ve-
.	.	.	.	16DLL	.	.	.	.	.
.	.	.	.	16CJJ	.	.	.	.	.
2GG	-ta,	4r	.	2D	.	.	.	4g	-den-
.	.	4G	Ve-	.	.	4B	par-	4d	-do
2r	.	4G	-den-	4C	-ta,	4.c	-ti-	4e	la
.	.	4E	-do	4c	Ve-	.	.	4g	pre-
.	.	.	.	.	.	8B	.	.	.
4r	.	4F	la	4c	-den-	4.A	.	4.f	-gion
4D	Ve-	4F	pre-	4A	-do	.	.	.	.
.	.	.	.	.	.	8G	.	8g	.
=43	=43	=43	=43	=43	=43	=43	=43	=43	=43
4D	-den-	4D	-gion	4d	la	2F	.	4a	.
4AA	-do	2A	don-	4c	pre-	.	.	4a	don-
4BB-X	la	.	.	4d	-gion	2D	-ta,	4f	-d’è
4BB-i	pre-	2G	-d’è	4d	don-	.	.	4d	par-
2AA	-gion	.	.	4c	-d’è	2r	.	2a	-ti-
.	.	4F	par-	4c	par-	.	.	.	.
2GG	don-	2G	-ti-	2B-X	-ti-	4r	.	2d	-ta,
.	.	.	.	.	.	4D	Si	.	.
=44	=44	=44	=44	=44	=44	=44	=44	=44	=44
4D	-d’è	1A	-ta,	2A	-ta,	4F	duol	4r	.
4C#X	par-	.	.	.	.	4E	di	4e	Si
2D	-ti-	.	.	2r	.	4D	tua	2.f	duol
.	.	.	.	.	.	4d	mi-	.	.
2AA	-ta,	1r	.	2A	Si	2c	-se-	.	.
.	.	.	.	.	.	.	.	4e	di
2r	.	.	.	[2B-i	duol	4G	-ria e	4d	tua
.	.	.	.	.	.	[4d	tri-	4g	mi-
=45	=45	=45	=45	=45	=45	=45	=45	=45	=45
1r	.	2r	.	4B-]	.	4d]	.	2f	-se-
.	.	.	.	4A	di	4c	-sta	.	.
.	.	2E	Si	2G	tua	4.B	sor-	2e	-ria e
.	.	.	.	.	.	8c	.	.	.
2r	.	2.F	duol	4D	mi-	2d	.	4a	tri-
.	.	.	.	2d	-se-	.	.	4a	-sta
2AA	Si	.	.	.	.	2A	-te,	2a	sor-
.	.	4E	di	4c	-ria e	.	.	.	.
=46	=46	=46	=46	=46	=46	=46	=46	=46	=46
2.BB-X	duol	2D	tua	4.B-X	tri-	1r	.	2f	-te.
.	.	.	.	8A	.	.	.	.	.
.	.	4D	mi-	8GL	.	.	.	2r	.
.	.	.	.	8FJ	.	.	.	.	.
4AA	di	2C	-se-	2F	.	.	.	.	.
4GG	tua	.	.	.	.	4r	.	1r	.
4GG	mi-	4BB	-ria e	4E	-sta	4B	Si	.	.
2FF	-se-	4AA	tri-	2A	sor-	[2c	duol	.	.
.	.	4AA	-sta	.	.	.	.	.	.
=47	=47	=47	=47	=47	=47	=47	=47	=47	=47
2EE	-ria e	1E	sor-	4G	-te,	4c]	.	0r	.
.	.	.	.	4G	Si	4B	di	.	.
4AA	tri-	.	.	2.c	duol	4A	tua	.	.
4AA	-sta	.	.	.	.	4A	mi-	.	.
4.C	sor-	2.E	-te.	.	.	2.G	-se-	.	.
.	.	.	.	4c	di	.	.	.	.
8BB	.	.	.	.	.	.	.	.	.
2AA	.	.	.	4c	tua	.	.	.	.
.	.	8DL	.	4A	mi-	4F#X	-ria e	.	.
.	.	8CJ	.	.	.	.	.	.	.
=48	=48	=48	=48	=48	=48	=48	=48	=48	=48
2GG	-te,	2D	.	4.B	-se-	4G	tri-	2d	El
.	.	.	.	.	.	4G	-sta	.	.
.	.	.	.	8B	-ria e	.	.	.	.
4r	.	4r	.	4B	tri-	2G	sor-	4d	vi-
4GG	e	2G	El	4B	-sta	.	.	4d	-ver
4C	tri-	.	.	4.c	sor-	2E	-te.	2e	no-
4AA	-sta	4A	vi-	.	.	.	.	.	.
.	.	.	.	8B	.	.	.	.	.
2D	sor-	4A	-ver	2A	.	4r	.	2f#X	-str’è_un
.	.	[4D	no-	.	.	4A	El	.	.
=49	=49	=49	=49	=49	=49	=49	=49	=49	=49
2GG	-te.	4D]	.	2G	-te.	2B	vi-	2g	fior
.	.	4D	-str’è un	.	.	.	.	.	.
2r	.	2.E	fior	2r	.	4B	-ver	2.g	col-
.	.	.	.	.	.	2B	no-	.	.
1r	.	.	.	2G	El	.	.	.	.
.	.	4C	col-	.	.	4c	-str’è un	4e	-to
.	.	4G	-to	4G	vi-	4B	fior	4d	da
.	.	4C	da	4G	-ver	[4c	col-	[4e	spi-
=50	=50	=50	=50	=50	=50	=50	=50	=50	=50
1r	.	2F	spi-	2A	no-	4c]	.	8eL]	.
.	.	.	.	.	.	.	.	16dL	.
.	.	.	.	.	.	.	.	16cJJ	.
.	.	.	.	.	.	2A	-to	4d	.
.	.	1.E	-na,	2B	-str’è un	.	.	2e	.
.	.	.	.	.	.	4G#i	da	.	.
2AA	El	.	.	2.c	fior	2A	spi-	2e	-na,
4AA	vi-	.	.	.	.	4A	-na,	4r	.
4AA	-ver	.	.	4A	col-	4c	El	4e	El
=51	=51	=51	=51	=51	=51	=51	=51	=51	=51
2C	no-	2r	.	4G	-to	4c	vi-	4e	vi-
.	.	.	.	4G	da	4c	-ver	4e	-ver
2D	-str’è un	4r	.	2F	spi-	4A	no-	2f	no-
.	.	4D	El	.	.	4A	-str’è un	.	.
2E	fior	4C	vi-	4E	-na,	2e	fior	2g	-str’è un
.	.	4C	-ver	2c	col-	.	.	.	.
2F	col-	4F	no-	.	.	2r	.	2a	fior
.	.	4A	-str’è un	4c	-to	.	.	.	.
=52	=52	=52	=52	=52	=52	=52	=52	=52	=52
4E	-to	4G	fior	2c	da	4r	.	4r	.
4F	da	2A	col-	.	.	2c	col-	2a	col-
2D	spi-	.	.	2d	spi-	.	.	.	.
.	.	4D	-to	.	.	4B	-to	8gL	.
.	.	.	.	.	.	.	.	8fJ	.
2C	-na,	2E	da	2G	-na,	2c	da	4e	.
.	.	.	.	.	.	.	.	2g	-to
2r	.	2D	spi-	2r	.	2A	spi-	.	.
.	.	.	.	.	.	.	.	4f#i	da
=53	=53	=53	=53	=53	=53	=53	=53	=53	=53
2GG	Pe-	1.D	-na,	2r	.	1.B	-na,	2g	spi-
1GG	-rò	.	.	4r	.	.	.	2g	-na,
.	.	.	.	4G	Pe-	.	.	.	.
.	.	.	.	2G	-rò	.	.	1r	.
[2FF	pian-	2r	.	[2A	pian-	4r	.	.	.
.	.	.	.	.	.	4c	Pe-	.	.
=54	=54	=54	=54	=54	=54	=54	=54	=54	=54
4FF]	.	0r	.	4A]	.	2c	-rò	1r	.
4EE	-ge	.	.	4G	-ge	.	.	.	.
2EE	la	.	.	2G	la	2B	pian-	.	.
2.AA	tua,	.	.	2.c	tua,	4A	-ge	2e	Pe-
.	.	.	.	.	.	4A	la	.	.
.	.	.	.	.	.	4A	tua,	2f	-rò
4BB	non	.	.	4B	non	4d	non	.	.
=55	=55	=55	=55	=55	=55	=55	=55	=55	=55
4C	la	1r	.	4G	la	4c	la	2e	pian-
4AA	sua	.	.	4A	sua	4c	sua	.	.
2D	mor-	.	.	2F	mor-	4.A	mor-	4d	-ge
.	.	.	.	.	.	.	.	4d	la
.	.	.	.	.	.	8B	.	.	.
2AA	-te,	4r	.	2E	-te,	1c	.	2.e	tua,
.	.	4A	Pe-	.	.	.	.	.	.
2r	.	2A	-rò	2r	.	.	.	.	.
.	.	.	.	.	.	.	.	4f	non
=56	=56	=56	=56	=56	=56	=56	=56	=56	=56
0r	.	2G	pian-	4r	.	4B	-te,	2g	la
.	.	.	.	4d	Pe-	4B	Pe-	.	.
.	.	4G	-ge	2d	-rò	4B	-rò	4d	sua
.	.	4F	la	.	.	4.A	pian-	4.f	mor-
.	.	2F	tua,	2c	pian-	.	.	.	.
.	.	.	.	.	.	8BL	.	8gL	.
.	.	.	.	.	.	8c	.	8a	.
.	.	.	.	.	.	8dJ	.	8fJ	.
.	.	4E	non	4c	-ge	[2e	.	8gL	.
.	.	.	.	.	.	.	.	8f	.
.	.	[4AA	la	4c	la	.	.	8e	.
.	.	.	.	.	.	.	.	8dJ	.
=57	=57	=57	=57	=57	=57	=57	=57	=57	=57
0r	.	8AAL]	.	2A	tua,	4e]	.	8cL	.
.	.	8BB	.	.	.	.	.	8d	.
.	.	8C	.	.	.	4e	-ge	8e	.
.	.	8DJ	.	.	.	.	.	8fJ	.
.	.	4E	.	2G	non	4B	la	8gL	.
.	.	.	.	.	.	.	.	8aJ	.
.	.	4E	sua	.	.	2e	tua,	4.b	.
.	.	2F	mor-	4c	la	.	.	.	.
.	.	.	.	.	.	.	.	8a	.
.	.	.	.	4A	sua	4d	non	2a	.
.	.	4E	-te,	2B	mor-	4e	la	.	.
.	.	[4E	Che	.	.	4e	sua	4g#i	.
=58	=58	=58	=58	=58	=58	=58	=58	=58	=58
2AA	Che	4E]	.	4A	-te,	2c	mor-	1a	-te,
.	.	2A	mor-	4E	Che	.	.	.	.
4D	mor-	.	.	4F	mor-	4.A	-te,	.	.
4D	-te è	4F#X	-te è	4D	-te è	.	.	.	.
.	.	.	.	.	.	8B	.	.	.
4C	quel-	4G	quel-	2E	quel-	2c	.	1r	.
4AA	-la	4A	-la	.	.	.	.	.	.
4.C	che	8GL	che	4E	-la	2r	.	.	.
.	.	8FnXi	.	.	.	.	.	.	.
.	.	8E	.	4G	che	.	.	.	.
8BB	si	8DJ	.	.	.	.	.	.	.
=59	=59	=59	=59	=59	=59	=59	=59	=59	=59
4AA	chia-	4C	.	4F	si	4r	.	4r	.
4GG	-ma	4BB	si	2E	chia-	4B	Che	4e	Che
2FF	vi-	4AA	chia-	.	.	4c	mor-	4a	mor-
.	.	4AA	-ma	4D	-ma	4A	-te è	4a	-te è
2.EE	-ta,	2.E	vi-	2G	vi-	2B	quel-	4g	quel-
.	.	.	.	.	.	.	.	4e	-la
.	.	.	.	2G	-ta,	4B	-la	4.g	che
4GG	Che	4D	-ta,	.	.	4B	che	.	.
.	.	.	.	.	.	.	.	8f	si
=60	=60	=60	=60	=60	=60	=60	=60	=60	=60
4AA	mor-	4r	.	1r	.	4c	si	4.e	chia-
4EE	-te è	4G	Che	.	.	2B	chia-	.	.
.	.	.	.	.	.	.	.	8d	-ma
2AA	quel-	4F	mor-	.	.	.	.	2c	vi-
.	.	4E	-te è	.	.	4A	-ma	.	.
2GG	-la	2G	quel-	2r	.	2d	vi-	2B	-ta,
2C	che	4G	-la	2E	Che	4e	-ta,	4r	.
.	.	[4A	che	.	.	4c	che	[4e	Che
=61	=61	=61	=61	=61	=61	=61	=61	=61	=61
4AA	si	4A]	.	2A	mor-	4c	mor-	4e]	.
2D	chia-	4F	si	.	.	4A	-te è	2f	mor-
.	.	4D	chia-	4A	-te è	4d	quel	.	.
4BB	-ma	4D	-ma	2G	quel-	4d	la	4d	-te è
2C	vi-	2G	vi-	.	.	4.c	che	2e	quel-
.	.	.	.	4E	-la	.	.	.	.
.	.	.	.	.	.	8B	si	.	.
2C	-ta,	2E	-ta,	4.c	che	4A	chia-	4e	-la
.	.	.	.	.	.	4G	-ma	4g	che
.	.	.	.	8B	si	.	.	.	.
=62	=62	=62	=62	=62	=62	=62	=62	=62	=62
1r	.	4r	.	4A	chia-	2.c	vi-	4f	si
.	.	4E	Che	4G	-ma	.	.	2e	chia-
.	.	4A	mor-	2F	vi-	.	.	.	.
.	.	4A	-te è	.	.	8BL	.	4d	-ma
.	.	.	.	.	.	8AJ	.	.	.
4r	.	2.G	quel-	4E	-ta,	8cL	.	2e	vi-
.	.	.	.	.	.	8BJ	.	.	.
4EE	Che	.	.	4E	Che	4.B	.	.	.
4EE	mor-	.	.	4E	mor-	.	.	2e	-ta,
.	.	.	.	.	.	8A	.	.	.
4AA	-te è	4E	-la	4C#X	-te è	4A	.	.	.
=63	=63	=63	=63	=63	=63	=63	=63	=63	=63
4GG	quel-	4.G	che	4D	quel-	4B	-ta,	4r	.
4EE	-la	.	.	4E	-la	4B	che	4e	che
.	.	8F	si	.	.	.	.	.	.
4.C	che	4E	chia-	4E	che	4G	si	4e	si
.	.	4E	-ma	4G	si	2c	chia-	2e	chia-
8BB	si	.	.	.	.	.	.	.	.
4AA	chia-	1E	vi-	4A	chia-	.	.	.	.
4GG#X	-ma	.	.	4B	-ma	4B	-ma	4e	-ma
2AA	vi-	.	.	2c	vi-	2A	vi-	2e	vi-
=64	=64	=64	=64	=64	=64	=64	=64	=64	=64
0EEl	-ta.	0El	-ta.	0Bl	-ta.	0G#Xl	-ta.	0el	-ta.
==	==	==	==	==	==	==	==	==	==
*-	*-	*-	*-	*-	*-	*-	*-	*-	*-
!!!system-decoration: s1,s2,s3,s4,s5
!!!RDF**kern: i = editorial accidental
!!!RDF**kern: l = terminal long
!!!ENC: Janosch Umbreit
!!!END: 2026/04/04
!!!EED: Benjamin Ory
!!!EEV: 2026/04/27
!!!YEC: Copyright 2026 Jessie Ann Owens and Scott Metcalfe, All Rights Reserved
!!!ONB: Translated from MusicXML on 2026/04/27
!!!verovio: header encoded
!!!header-left: Edited by Jessie Ann Owens and Scott Metcalfe (2026)\n
!!!header-right:
!!!header-center:
